packages/icons/svg/Outline/rewind-right.svg

<svg fill="none" height="24" viewBox="0 0 24 24" width="24" xmlns="http://www.w3.org/2000/svg"><path clip-rule="evenodd" d="m14.5 15.9083v-7.89403l4.822 3.98403zm-7.99998 0v-7.89403l4.82198 3.98403zm14.35798-5.234-5.099-4.21403c-.609-.502-1.477-.604-2.209-.259-.648.306-1.05.913-1.05 1.586v2.59103l-4.741-3.91803c-.609-.502-1.478-.604-2.209-.259-.648.306-1.05.913-1.05 1.586v8.42603c0 .673.402 1.28 1.05 1.586.289.135.599.202.906.202.471 0 .935-.157 1.303-.462l4.741-3.916v2.59c0 .673.402 1.28 1.05 1.586.289.135.599.202.906.202.471 0 .935-.157 1.303-.462l5.1-4.213c.407-.336.641-.82.641-1.326s-.234-.99-.642-1.326z" fill="#6b7280" fill-rule="evenodd"/></svg>

<svg width="24" height="24" viewBox="0 0 24 24" fill="none" xmlns="http://www.w3.org/2000/svg">
<g id="Icon/Outline/rewind-right">
<path id="Mask" fill-rule="evenodd" clip-rule="evenodd" d="M14.5 15.9082V8.01421L19.322 11.9982L14.5 15.9082ZM6.5 15.9082V8.01421L11.322 11.9982L6.5 15.9082ZM20.858 10.6742L15.759 6.46021C15.15 5.95821 14.282 5.85621 13.55 6.20121C12.902 6.50721 12.5 7.11421 12.5 7.78721V10.3782L7.759 6.46021C7.15 5.95821 6.281 5.85621 5.55 6.20121C4.902 6.50721 4.5 7.11421 4.5 7.78721V16.2132C4.5 16.8862 4.902 17.4932 5.55 17.7992C5.839 17.9342 6.149 18.0012 6.456 18.0012C6.927 18.0012 7.391 17.8442 7.759 17.5392L12.5 13.6232V16.2132C12.5 16.8862 12.902 17.4932 13.55 17.7992C13.839 17.9342 14.149 18.0012 14.456 18.0012C14.927 18.0012 15.391 17.8442 15.759 17.5392L20.859 13.3262C21.266 12.9902 21.5 12.5062 21.5 12.0002C21.5 11.4942 21.266 11.0102 20.858 10.6742Z" fill="#000000"/>
</g>
</svg>
